storage/app/icons/phosphoricons/bold/hospital-bold.svg

<svg xmlns="http://www.w3.org/2000/svg" fill="currentColor" viewBox="0 0 256 256"><path d="M244 204h-4v-76a20 20 0 0 0-20-20h-48V48a20 20 0 0 0-20-20H56a20 20 0 0 0-20 20v156h-4a12 12 0 0 0 0 24h212a12 12 0 0 0 0-24m-28-72v72h-44v-72ZM60 52h88v152h-12v-44a12 12 0 0 0-12-12H84a12 12 0 0 0-12 12v44H60Zm52 152H96v-32h16ZM72 96a12 12 0 0 1 12-12h8v-8a12 12 0 0 1 24 0v8h8a12 12 0 0 1 0 24h-8v8a12 12 0 0 1-24 0v-8h-8a12 12 0 0 1-12-12"/></svg>

<svg xmlns="http://www.w3.org/2000/svg" viewBox="0 0 256 256" fill="currentColor"><path d="M244,204h-4V128a20,20,0,0,0-20-20H172V48a20,20,0,0,0-20-20H56A20,20,0,0,0,36,48V204H32a12,12,0,0,0,0,24H244a12,12,0,0,0,0-24Zm-28-72v72H172V132ZM60,52h88V204H136V160a12,12,0,0,0-12-12H84a12,12,0,0,0-12,12v44H60Zm52,152H96V172h16ZM72,96A12,12,0,0,1,84,84h8V76a12,12,0,0,1,24,0v8h8a12,12,0,0,1,0,24h-8v8a12,12,0,0,1-24,0v-8H84A12,12,0,0,1,72,96Z"/></svg>
